X:223
T: Schfer und Edelmann (7c), S. 45
N: T0111
O: Luxemburg
S: Singendes Volk, Esch-Alzette 1937 posth.]
N: DIEKIRCH; gesungen von fff Elise Laschette am 14.1.1934
R: "erzhlende Lieder"]
M: 2/4
L: 1/8
K: C
G2 | c2c2 | B2AA | A2GG | G2
A2 | G2EE | F2D2 | AAG2 | G2
AA | G2FF | F2AA | G2EE | E2
G2 | c2cc | d2d2 | BAG2 | e2
c2 | c2cc | d2d2 | B2GG | c2

@@@ Tune index: 8277
